X: 22
T:Father Tom O'Neill
M:6/8
L:1/8
S:Capt. F. O'Neill
R:Air
K:D
"Con spirito"(3B/2c/2d/2|e2 e f2 e|d2 B BAF|A2 F E2 E|E3-E2 F/2G/2|
A2 F A2 c|B2 A F2 A|B2 d cBA|B3-B2||
F/2G/2|A2 F A2 c|B2 A F2 A|B2 d cBA|B3-B2 c/2d/2|
e2 e f2 e|d2 B BAF|A2 F E2 E|E3-E2||
%
% A ballad of 19 verses sung to this air recited the conspiracy of an
% infatuated wealthy heiress in County Armagh to inveigle or coerce a
% young clergyman, the son of a widow, into matrimony; and the
% frustration of her designs by the confession of an accomplice.

